X: 824
P: Longways for as many as will
M: 6/4
L: 1/4
K: G
d |\
c>de dBG | c>dB ABc | BGG G2 |]\
c>d e/f/ g>fe | dBc A2G | cAA A>Bc |\
d3 c3 | B>cB A2d | BGG G2 |]

